X: 37302
T: Skräddarkadrilj
R: barndance
M: 4/4
K: Dmajor
|:g>f|g2 d2 d>ed>c|B2 G2 G2 g2|e>ce>g f>df>g|a>gf>e d>eg>f|
g2 d2 d>ed>c|B2 G2 G2 g2|e>ce>g f>df>a|g2 g>f g2:|
K: DMaj
|:(3efg|a2 a2 a>ba>g|f2 f2 f>gf>e|d2 d2 c2 c>c|d2 d2 d>ef>g|
a2 a2 a>ba>g|f2 f2 f>gf>e|d2 d2 c2 c>c|d4 d2:|
K: GMaj
|:d>B|G2 G2 G>Bd>B|G2 G2 G>Bd>B|c2 e>c B2 d>B|A>GF>G A>Ad>B|
G2 G2 G>Bd>B|G2 G2 G>Bd>B|c2 e>c A>FF>F|G4 G2:|
|:d>c|B2 d2 d>ed>c|B2 d2 d2 B2|c2- c3/2{d/c/}B/ c2 B2|A4- A2 ^cc|
d2- d>d e2 f2|g2 g2 a>gf>e|d2 d<c B>cA>B|G4- G2:|

